assets/img/braze_icons/bar-chart-circle-03.svg

<svg fill="none" height="24" viewBox="0 0 24 24" width="24" xmlns="http://www.w3.org/2000/svg"><path clip-rule="evenodd" d="m12 1c-6.07513 0-11 4.92487-11 11 0 6.0751 4.92487 11 11 11 6.0751 0 11-4.9249 11-11 0-6.07513-4.9249-11-11-11zm-4 5c.55228 0 1 .44772 1 1v10c0 .5523-.44772 1-1 1s-1-.4477-1-1v-10c0-.55228.44772-1 1-1zm4 4c.5523 0 1 .4477 1 1v6c0 .5523-.4477 1-1 1s-1-.4477-1-1v-6c0-.5523.4477-1 1-1zm5 5c0-.5523-.4477-1-1-1s-1 .4477-1 1v2c0 .5523.4477 1 1 1s1-.4477 1-1z" fill="#801ed7" fill-rule="evenodd"/></svg>

<svg width="24" height="24" viewBox="0 0 24 24" fill="none" xmlns="http://www.w3.org/2000/svg">
<path fill-rule="evenodd" clip-rule="evenodd" d="M12 1C5.92487 1 1 5.92487 1 12C1 18.0751 5.92487 23 12 23C18.0751 23 23 18.0751 23 12C23 5.92487 18.0751 1 12 1ZM8 6C8.55228 6 9 6.44772 9 7V17C9 17.5523 8.55228 18 8 18C7.44772 18 7 17.5523 7 17V7C7 6.44772 7.44772 6 8 6ZM12 10C12.5523 10 13 10.4477 13 11V17C13 17.5523 12.5523 18 12 18C11.4477 18 11 17.5523 11 17V11C11 10.4477 11.4477 10 12 10ZM17 15C17 14.4477 16.5523 14 16 14C15.4477 14 15 14.4477 15 15V17C15 17.5523 15.4477 18 16 18C16.5523 18 17 17.5523 17 17V15Z" fill="#801ED7"/>
</svg>
